public/flags/skull.svg

<?xml version="1.0" encoding="UTF-8"?>
<svg xmlns="http://www.w3.org/2000/svg" viewBox="0 0 60 30" width="1200" height="600">
<clipPath id="s">
	<path d="M0,0 v30 h60 v-30 z"/>
</clipPath>
<clipPath id="t">
	<path d="M30,15 h30 v15 z v15 h-30 z h-30 v-15 z v-15 h30 z"/>
</clipPath>
<g clip-path="url(#s)">
	<path d="M0,0 v30 h60 v-30 z" fill="#012169"/>
	<path d="M0,0 L60,30 M60,0 L0,30" stroke="#fff" stroke-width="6"/>
	<path d="M0,0 L60,30 M60,0 L0,30" clip-path="url(#t)" stroke="#C8102E" stroke-width="4"/>
	<path d="M30,0 v30 M0,15 h60" stroke="#fff" stroke-width="10"/>
	<path d="M30,0 v30 M0,15 h60" stroke="#C8102E" stroke-width="6"/>
</g>
</svg>

<?xml version="1.0" encoding="UTF-8" standalone="no"?>
<svg xmlns="http://www.w3.org/2000/svg" xmlns:xlink="http://www.w3.org/1999/xlink" viewBox="0 0 60 40" width="900" height="600">
  <defs><clipPath id="t"><path d="M30,15H60V30zM30,15V30H0zM30,15H0V0zM30,15V0H60z"/></clipPath></defs>
  <rect width="60" height="40" style="fill:#00247d"/>
  <g style="stroke:#ffffff;stroke-width:6.93225527;fill:none">
    <path d="M0,0L60,40M60,0L0,40"/>
    <path d="M0,0L60,30M60,0L0,30" style="stroke:#cf142b;stroke-width:4" clip-path="url(#t)" transform="scale(1,1.3333333)"/>
    <path d="M30,0V40M0,20H60" style="stroke-width:11.55375878"/>
    <path d="M30,0V40M0,20H60" style="stroke:#cf142b"/></g></svg>
